!!!OTL: Kirmeslied.
!!!OTL-incipit: LOET ONS NOCH ENS DRENKEN
!!!COM: Ges. v. H. Langer
!!!ARE: Europa, Mitteleuropa, Deutschland
!!!SCT: F0804
!!!YEM: Copyright 1995, estate of Helmut Schaffrath.
**kern	**text
*ICvox	*
*M2/4	*
*k[b-]	*
*F:	*
=1	=1
!LO:TX:a:t=Mäßig.	!
!LO:TX:a:t=Vom Niederrhein.	!
{8f	1._Löt
8g	ons
8a	noch
8b-/	ens
=2	=2
4cc/	dren-
4ff/}	-ken,
=3	=3
{8dd/	suk-
8dd/	-ker-
8dd/	-lie-
8dd/	-vet
=4	=4
8dd/	Ge-
8cc/	-retschen!
4cc/}	.
=5	=5
{8cc/	sot
8b-/	ons
8b-/	noch
8b-/	ens
=6	=6
4a	dren-
4cc/}	-ken,
=7	=7
{8g	suk-
8f	-ker-
8g	-lie-
8a	-ve
=8	=8
4f	Meid!
4r}	.
==	==
!!!AGN: Geselligkeits -, Trink -, Kirmes - Lied
!!!ONB: ESAC (Essen Associative Code) Database: FINK
!!!AMT: simple duple
!!!AIN: vox
!!!EED: Helmut Schaffrath
!!!EEV: 1.0
!!!GTL: Liedertafel- und Gesellschaftslieder
!!Text: Volkslied
!!!source: Musikalischer Hausschatz der Deutschen. Eine Sammlung von über 1000 Liedern und Gesängen mit Singstimmen und Klavierbegleitung. Leipzig, Litterarisches Verlags-Haus.
!!!page: 557
!!!URL-scan: https://www.digitale-sammlungen.de/en/view/bsb11144622?page=505
!!!ENC: Anna Maria Matuszewska
!!!EEV: 2025/03/21
*-	*-
